src/lib/packages/icons/src/assets/filled/code.svg

<svg width="24" height="24" viewBox="0 0 24 24" fill="none" xmlns="http://www.w3.org/2000/svg">
<path d="M7.00001 17C6.74401 17 6.48801 16.902 6.29301 16.707L2.29301 12.707C1.90201 12.317 1.90201 11.683 2.29301 11.293L6.29301 7.29299C6.68401 6.90199 7.31601 6.90199 7.70701 7.29299C8.09801 7.68299 8.09801 8.31699 7.70701 8.70699L4.41401 12L7.70701 15.293C8.09801 15.683 8.09801 16.317 7.70701 16.707C7.51201 16.902 7.25601 17 7.00001 17ZM17.707 16.707L21.707 12.707C22.098 12.317 22.098 11.683 21.707 11.293L17.707 7.29299C17.316 6.90199 16.684 6.90199 16.293 7.29299C15.902 7.68299 15.902 8.31699 16.293 8.70699L19.586 12L16.293 15.293C15.902 15.683 15.902 16.317 16.293 16.707C16.488 16.902 16.744 17 17 17C17.256 17 17.512 16.902 17.707 16.707ZM9.937 20.351L15.937 4.35101C16.131 3.83401 15.869 3.25699 15.352 3.06399C14.834 2.86999 14.259 3.13198 14.064 3.64898L8.064 19.649C7.87 20.166 8.13201 20.743 8.64901 20.936C8.76501 20.98 8.88301 21 9.00001 21C9.40501 21 9.786 20.752 9.937 20.351Z" fill="currentColor"/>
</svg>

<svg xmlns="http://www.w3.org/2000/svg" width="24" height="24" fill="none"><path fill="currentColor" d="M7 17a.997.997 0 0 1-.707-.293l-4-4a.999.999 0 0 1 0-1.414l4-4a.999.999 0 1 1 1.414 1.414L4.414 12l3.293 3.293A.999.999 0 0 1 7 17Zm10.707-.293 4-4a.999.999 0 0 0 0-1.414l-4-4a.999.999 0 1 0-1.414 1.414L19.586 12l-3.293 3.293a.999.999 0 1 0 1.414 1.414Zm-7.77 3.644 6-16a1 1 0 1 0-1.873-.702l-6 16a1 1 0 1 0 1.873.702Z"/></svg>
